icons/benq.svg

<svg
  data-name="Layer 4"
  xmlns="http://www.w3.org/2000/svg"
  viewBox="0 0 24 24"
  height="24"
  width="24"
>
  <path d="M5.71 11.38a1.11 1.11 0 0 0 .62-1c0-.53-.43-1.14-1.48-1.14H2v4.7h2.67c1.37 0 1.79-.61 1.79-1.4a1.28 1.28 0 0 0-.75-1.16zm-2.38-1h1.22a.35.35 0 0 1 .38.33.34.34 0 0 1-.39.37H3.33zm1.13 2.52H3.3v-.94h1.15c.26 0 .56.1.56.45s-.16.45-.55.45zm4.3-3.68a2.14 2.14 0 0 0-1.36.53 2.43 2.43 0 0 0-.78 1.95 2.26 2.26 0 0 0 1.1 2 3 3 0 0 0 3.28-.29v-1a2.32 2.32 0 0 1-1.86.52C8 12.74 8.05 12 8 11.9h3.07s.28-2.72-2.35-2.72zM8.07 11a.81.81 0 0 1 1.61 0zm6.09-1.8a1.81 1.81 0 0 0-1.36.8v-.67h-1.37v4.57h1.37V11c.22-.32.57-.73.92-.76s.59.18.72.64v3h1.41v-3.11a1.55 1.55 0 0 0-1.69-1.57zm5.65 4.59a2.33 2.33 0 0 0 1.39-2.22 2.56 2.56 0 0 0-5.12 0A2.37 2.37 0 0 0 18.64 14a3.09 3.09 0 0 0 3.18.67l.18-1.46a2.72 2.72 0 0 1-2.19.58zm-2.27-2.1a1.23 1.23 0 0 1 1.08-1.33 1.21 1.21 0 0 1 1.06 1.33A1.21 1.21 0 0 1 18.62 13a1.23 1.23 0 0 1-1.08-1.33z"></path>
</svg>

<svg id="Layer_4" data-name="Layer 4" xmlns="http://www.w3.org/2000/svg" viewBox="0 0 24 24"><path d="M5.71,11.38a1.11,1.11,0,0,0,.62-1c0-.53-.43-1.14-1.48-1.14H2v4.7H4.67c1.37,0,1.79-.61,1.79-1.4A1.28,1.28,0,0,0,5.71,11.38Zm-2.38-1H4.55a.35.35,0,0,1,.38.33.34.34,0,0,1-.39.37H3.33Zm1.13,2.52H3.3v-.94H4.45c.26,0,.56.1.56.45S4.85,12.86,4.46,12.86Zm4.3-3.68a2.14,2.14,0,0,0-1.36.53,2.43,2.43,0,0,0-.78,1.95,2.26,2.26,0,0,0,1.1,2A3,3,0,0,0,11,13.41v-1a2.32,2.32,0,0,1-1.86.52C8,12.74,8.05,12,8,11.9h3.07s.28-2.72-2.35-2.72ZM8.07,11a.81.81,0,0,1,1.61,0ZM14.16,9.2A1.81,1.81,0,0,0,12.8,10V9.33H11.43V13.9H12.8V11c.22-.32.57-.73.92-.76s.59.18.72.64v3h1.41V10.77A1.55,1.55,0,0,0,14.16,9.2Zm5.65,4.59a2.33,2.33,0,0,0,1.39-2.22,2.56,2.56,0,0,0-5.12,0A2.37,2.37,0,0,0,18.64,14a3.09,3.09,0,0,0,3.18.67L22,13.21A2.72,2.72,0,0,1,19.81,13.79Zm-2.27-2.1a1.23,1.23,0,0,1,1.08-1.33,1.21,1.21,0,0,1,1.06,1.33A1.21,1.21,0,0,1,18.62,13a1.23,1.23,0,0,1-1.08-1.33Z"/></svg>
